X: 683
T: Aftermath, The
R: waltz
M: 3/4
K: Gmajor
"G"B3A G2|B3A G2|B<d d4|D4 EF|
G4 B2|"C"c4 A2|"G"B3A G2|"D"A6|
"G"B3A G2|B3A G2|B<d d4|D4 EF|
G4 B2|"D"A3G F2|"G"G6|G4 Bc||
"G"d4 B2|"C"c4 A2|"G" G<B B4|D4 Bc|
"G"d4 B2|"C"c4 A2|"G"B3A G2|"D"A6|
"G"d4 B2|"C"c4 A2|"G" G<B B4|D4 EF|
G4 B2|"D"A3G F2|"G"G6|G6||

